svg/fluentui-system-icons/ic_fluent_accessibility_checkmark_32_filled.svg

<svg width="32" height="32" viewBox="0 0 32 32" fill="none" xmlns="http://www.w3.org/2000/svg">
<path d="M16 9C17.933 9 19.5 7.433 19.5 5.5C19.5 3.567 17.933 2 16 2C14.067 2 12.5 3.567 12.5 5.5C12.5 7.433 14.067 9 16 9ZM7.0738 6.16824C5.46929 5.61576 3.72071 6.4686 3.16824 8.07311C2.61576 9.67761 3.4686 11.4262 5.07311 11.9787L10.6628 13.9034C10.8646 13.9728 11 14.1627 11 14.3761V17.8934C11 17.9693 10.9827 18.0443 10.9494 18.1125L7.30744 25.5797C6.56354 27.105 7.19692 28.9444 8.72214 29.6883C10.2474 30.4322 12.0868 29.7989 12.8307 28.2736L14.2911 25.2794C14.1011 24.5514 14 23.7875 14 23C14 18.7076 17.0049 15.117 21.0259 14.2172C21.0744 14.0727 21.1876 13.9549 21.3373 13.9033L26.9269 11.9787C28.5314 11.4262 29.3842 9.67761 28.8318 8.07311C28.2793 6.4686 26.5307 5.61576 24.9262 6.16824L21.9523 7.19222C21.4328 7.37111 21.0463 7.74379 20.8128 8.16441C19.873 9.85753 18.0692 10.9998 16 10.9998C13.9308 10.9998 12.127 9.85754 11.1873 8.16443C10.9538 7.74381 10.5673 7.37113 10.0477 7.19225L7.0738 6.16824ZM23 15.5C27.1421 15.5 30.5 18.8579 30.5 23C30.5 27.1421 27.1421 30.5 23 30.5C18.8579 30.5 15.5 27.1421 15.5 23C15.5 18.8579 18.8579 15.5 23 15.5ZM27.5303 20.2197C27.2374 19.9268 26.7626 19.9268 26.4697 20.2197L21.75 24.9393L19.7803 22.9697C19.4874 22.6768 19.0126 22.6768 18.7197 22.9697C18.4268 23.2626 18.4268 23.7374 18.7197 24.0303L21.2197 26.5303C21.5126 26.8232 21.9874 26.8232 22.2803 26.5303L27.5303 21.2803C27.8232 20.9874 27.8232 20.5126 27.5303 20.2197Z" fill="#212121"/>
</svg>

<svg xmlns="http://www.w3.org/2000/svg" width="32" height="32"><path d="M16 9a3.5 3.5 0 1 0 0-7 3.5 3.5 0 0 0 0 7ZM7.074 6.168a3.073 3.073 0 1 0-2 5.81l5.589 1.925a.5.5 0 0 1 .337.473v3.517a.5.5 0 0 1-.05.22L7.306 25.58a3.073 3.073 0 1 0 5.524 2.694l1.46-2.995a9.003 9.003 0 0 1 6.735-11.062.5.5 0 0 1 .311-.314l5.59-1.924a3.073 3.073 0 0 0-2-5.81l-2.975 1.023a2.1 2.1 0 0 0-1.14.972A5.498 5.498 0 0 1 16 11a5.498 5.498 0 0 1-4.813-2.836 2.091 2.091 0 0 0-1.14-.972L7.075 6.168ZM23 15.5a7.5 7.5 0 1 1 0 15 7.5 7.5 0 0 1 0-15Zm4.53 4.72a.75.75 0 0 0-1.06 0l-4.72 4.72-1.97-1.97a.75.75 0 1 0-1.06 1.06l2.5 2.5a.75.75 0 0 0 1.06 0l5.25-5.25a.75.75 0 0 0 0-1.06Z"/></svg>
